X:115
T:Adm. Duncan’s Hornpipe TS.115
T:Tumblers Hornpipe,aka TS.115
T:Washington Hornpipe,aka TS.115
M:C
L:1/8
Q:1/2=90
S:Thomas Sands’ MS,1810,Lincolnshire
R:.hornpipe
O:England;Lincolnshire
Z:vmp.Ruairidh Greig, 2011
K:Bb
B|Bcde fBAB|gBaB bBAB|GBFB EBDB|CecB BAGF|
Bcde fBAB|gBaB bBAB|GBFB EBDB|ecBAB2:|
|:f=e|fBAB gBAB|gabg gfed|edcB cBcd|edcB BAGF|
Bcde fBAB |gBaB bBAB|GBFB EBDB|ecBAB2:|]

